Resources/Public/Images/Icons/Ionicons/ios-barcode.svg

<svg xmlns="http://www.w3.org/2000/svg" width="32" height="32" viewBox="0 0 512 512"><path d="M48 128v256h416V128H48zm80 192h-16V192h16v128zm64 32h-16V160h16v192zm71-16h-16V176h16v160zm73 16h-16V160h16v192zm64-32h-16V192h16v128z"/></svg>

<?xml version="1.0" encoding="utf-8"?>
<!-- Generator: Adobe Illustrator 16.2.1, SVG Export Plug-In . SVG Version: 6.00 Build 0)  -->
<!DOCTYPE svg PUBLIC "-//W3C//DTD SVG 1.1//EN" "http://www.w3.org/Graphics/SVG/1.1/DTD/svg11.dtd">
<svg version="1.1" id="Layer_1" xmlns="http://www.w3.org/2000/svg" xmlns:xlink="http://www.w3.org/1999/xlink" x="0px" y="0px"
	 width="32px" height="32px" viewBox="0 0 512 512" enable-background="new 0 0 512 512" xml:space="preserve">
<g>
	<path d="M48,128v256h416V128H48z M128,320h-16V192h16V320z M192,352h-16V160h16V352z M263,336h-16V176h16V336z M336,352h-16V160h16
		V352z M400,320h-16V192h16V320z"/>
</g>
</svg>
